tools/download-figma-icons/icons/outlined-medium/mail.svg

<svg width="24" height="24" viewBox="0 0 24 24" fill="none" xmlns="http://www.w3.org/2000/svg">
<path fill-rule="evenodd" clip-rule="evenodd" d="M22.125 19.2411C22.3313 19.2411 22.5 19.0723 22.5 18.8661V5.62577C22.5 5.41877 22.3313 5.25077 22.125 5.25077H1.87534C1.66909 5.25077 1.50034 5.41877 1.50034 5.62577V18.8661C1.50034 19.0723 1.66909 19.2411 1.87534 19.2411H22.125ZM1.87534 3.7508H22.125C23.1593 3.7508 24 4.59153 24 5.62577V18.8661C24 19.9003 23.1593 20.741 22.125 20.741H1.87534C0.841103 20.741 0.000366205 19.9003 0.000366205 18.8661V5.62577C0.000366205 4.59153 0.841103 3.7508 1.87534 3.7508ZM20.4768 8.62078L16.0841 12.4172L20.479 16.2384C20.7918 16.5107 20.8248 16.9839 20.5533 17.2974C20.4048 17.4669 20.1963 17.5554 19.987 17.5554C19.8123 17.5554 19.6368 17.4939 19.495 17.3701L14.9381 13.408L12.3477 15.6467C12.3212 15.6695 12.2911 15.6845 12.2614 15.6992C12.2482 15.7058 12.2351 15.7123 12.2224 15.7194C12.2122 15.7253 12.2026 15.7317 12.193 15.738C12.1757 15.7493 12.1587 15.7605 12.1399 15.7682C12.0492 15.8057 11.9539 15.8282 11.8572 15.8282C11.7604 15.8282 11.6652 15.8057 11.5744 15.7682C11.5558 15.7605 11.5394 15.7496 11.5225 15.7384C11.5129 15.732 11.5031 15.7254 11.4927 15.7194C11.4804 15.7126 11.4678 15.7064 11.4552 15.7001C11.4249 15.6851 11.3945 15.67 11.3674 15.6467L8.77696 13.408L4.21928 17.3701C4.07678 17.4939 3.90204 17.5554 3.72654 17.5554C3.51729 17.5554 3.30955 17.4669 3.16105 17.2974C2.8888 16.9839 2.9218 16.5107 3.23455 16.2384L7.63023 12.4172L3.2368 8.62078C2.9233 8.35003 2.88805 7.87679 3.15955 7.56329C3.43104 7.2483 3.90504 7.21605 4.21703 7.48605L11.8572 14.0882L19.4973 7.48605C19.8093 7.21605 20.2825 7.2483 20.5548 7.56329C20.8255 7.87679 20.7903 8.35003 20.4768 8.62078Z" fill="black"/>
</svg>

<svg width="24" height="24" viewBox="0 0 24 24" fill="none" xmlns="http://www.w3.org/2000/svg"><path fill-rule="evenodd" clip-rule="evenodd" d="M22.125 19.241a.376.376 0 0 0 .375-.375V5.626a.376.376 0 0 0-.375-.375H1.875a.376.376 0 0 0-.375.375v13.24c0 .206.17.375.375.375h20.25ZM1.875 3.751h20.25c1.034 0 1.875.84 1.875 1.875v13.24c0 1.034-.84 1.875-1.875 1.875H1.875A1.877 1.877 0 0 1 0 18.866V5.626C0 4.592.841 3.75 1.875 3.75Zm18.602 4.87-4.393 3.796 4.395 3.821a.751.751 0 0 1-.492 1.317.747.747 0 0 1-.492-.185l-4.557-3.962-2.59 2.239a.398.398 0 0 1-.087.052l-.039.02-.029.019c-.017.011-.034.023-.053.03a.741.741 0 0 1-.283.06.742.742 0 0 1-.283-.06.262.262 0 0 1-.051-.03l-.03-.019-.038-.019a.404.404 0 0 1-.088-.053l-2.59-2.239-4.558 3.962a.748.748 0 0 1-1.058-.073.75.75 0 0 1 .074-1.059l4.395-3.82L3.237 8.62a.749.749 0 1 1 .98-1.135l7.64 6.602 7.64-6.602a.75.75 0 1 1 .98 1.135Z" fill="currentColor"/></svg>
